X:7
T:MacArthur Road
R:Reel
C:Dave Richardson
L:1/8
M:C|
K:D
Q:"87 bpm"
[|{g}dA {gAGAG}A2 {g}AB{g}de | {fege} f2 {g}fd {g}ed{g}Bd | {gef}e2 {A}ef {g}ed{g}Bd | {g}ef{g}fd {g}ed{g}Be |
{g}dA {gAGAG}A2 {g}AB{g}de | {fege} f2 {g}fd {g}ed{g}Bd | {gef}e2 {A}ef {g}ed{g}B{d}A| {g}AB{g}de {Gdc}d2 {g}de ||
{g}fA {gAGAG}A2 {g}fAgA | {gfg}f2 ge {g}fd{g}Bd | {gef}e2 {A}ef {g}ed{g}Bd | {g}ef{g}fd {g}ed{g}Bd |
{g}fA {gAGAG}A2 {g}fAgA | {gfg}f2 ge {g}fd{g}Bd | {gef}e2 {A}ef {g}ed{g}B{d}A | {g}AB{g}de {Gdc}d2 {g}de |
{g}fA {gAGAG}A2 {g}fAgA | {g}fAgA {g}fd{g}Bd | {gef}e2 {A}ef {g}ed{g}Bd | {g}e4 {g}f2g2 |
"    Welcome back to Wish.com"{ag}(a4 a2)g2 | {a}f2d2 {g}ABd2 | {gf}0g8 | d4 {g}c4 | {ag}a4 {g}cd{g}ea |
dA {gAGAG}A2 {g}AB{g}de | {g}faga fA{g}Bd | {g}e3f {g}ed{g}B{d}A | {gf}g3 {a}f3 d2 | {g}e3f {g}ed{g}B{d}(A | A)B{g}de {g}d z3 |]

